X:150
T: Cottage at Larraga (with piano acc.)
C: BB
R: hornpipe
Q: 1/8=320
M: 4/4
L: 1/8
V: 1 program 1 73 %flute
V: 2 volume=70 clef=bass m=D program 1 01
K: Em
[V:1] A|"Em"BGEG Be d2|"Am"ecAd "D"fa "G"g2|"D"afdf "G"gdBd|"C"ecBc "D"(3ABc BA|
[V:2] z|E,2[E2B2G2]B,,2[E2B2G2]|A,,2[A2E2C2][D,2][G,2D2B2]|D,2[D2A2F2]G,,2[G2D2B2]|\
C,2[C2G2E2]D,2[D2A2F2]|
%
[V:1] "Em"BGEG Be d2|"Am"ecAd "D"fa "G"g2|"D"afdf "G"gbag|"Am"ec"D"AF "G"G3 :|
[V:2] E,2[E2B2G2]B,,2[E2B2G2]|A,,2[A2E2C2][D,2A,2F2][G,2D2B2]|D,2[D2A2F2]G,,2[G2D2B2]|\
[A,2][D,2A,2F2]G,,2[GDB]:|
%
[V:1] B|"Em"edBd efge|"D"fd^cd fgaf|"G"g2 bg "Em"eBBA|"G"GAB^c "D"dcdf|
[V:2] z|E,2[E2B2G2]B,,2[E2B2G2]|D,2[D2A2F2]A,,2[D2F2A2]|G,,2[G2D2B2]E,2[B2E2G2]|\
G,,2[G2D2B2]D,2[D2A2F2]|
%
[V:1] "Em"edBd efge|"D"fd^cd fgaf|"G"bg"D"af "G"gfed|"Em"Beed e3 :|
[V:2] E,2[E2B2G2]B,,2[E2B2G2]|D,2[D2A2F2]A,,2[D2F2A2]|[G,2][D,2A,2F2]G,2[G2D2B2]|\
E,2[B2E2G2] E,,3 :|
%%%%%%%%%%%%%%%%%%%%%%%%%%%%%%%%%%%%%%%%%%%
